img/beta-logo.svg

<svg width="378" height="66" viewBox="0 0 378 66" fill="none" xmlns="http://www.w3.org/2000/svg">
<g clip-path="url(#clip0_1222_300)">
<path d="M2 7.43414C2 4.45017 4.44626 2 7.50251 2H58.5142C61.5704 2 64.0167 4.45017 64.0167 7.43416V57.9811C64.0167 60.9651 61.5704 63.4152 58.5142 63.4152H7.50249C4.44625 63.4152 2 60.9651 2 57.9811V7.43414Z" fill="white" stroke="#5A19DA" stroke-width="4" stroke-linecap="square"/>
<path fill-rule="evenodd" clip-rule="evenodd" d="M26.2997 10.2377C24.5211 10.2377 23.0794 11.6664 23.0794 13.4287V26.7448C23.0794 28.5072 24.5211 29.9358 26.2997 29.9358H39.7383C41.5168 29.9358 42.9586 28.5072 42.9586 26.7448V13.4287C42.9586 11.6664 41.5168 10.2377 39.7383 10.2377H26.2997ZM33.5349 15.4361C33.514 14.2384 34.48 13.2508 35.6924 13.2302C36.9049 13.2096 37.9047 14.1637 37.9255 15.3614C37.9463 16.5591 36.9805 17.5466 35.7679 17.5672C35.3108 17.575 34.8839 17.4442 34.5281 17.214L31.0205 19.3415C31.081 19.5339 31.1153 19.7381 31.1191 19.9499C31.1241 20.241 31.0709 20.5196 30.97 20.775L34.4516 22.8867C34.8017 22.6386 35.229 22.4895 35.6924 22.4816C36.9049 22.461 37.9047 23.4152 37.9255 24.6128C37.9463 25.8105 36.9805 26.7981 35.7679 26.8188C34.5555 26.8394 33.5558 25.8852 33.5349 24.6875C33.5331 24.5843 33.5386 24.4826 33.5511 24.383L29.6684 22.0281C29.4474 22.1067 29.2096 22.1515 28.9615 22.1556C27.7491 22.1763 26.7493 21.2221 26.7284 20.0245C26.7076 18.8269 27.6736 17.8392 28.886 17.8186C29.2261 17.8128 29.5496 17.8837 29.8394 18.0153L33.5643 15.756C33.5468 15.6518 33.5369 15.5449 33.5349 15.4361Z" fill="#5A19DA"/>
<path fill-rule="evenodd" clip-rule="evenodd" d="M13.6868 35.2541C11.9082 35.2541 10.4664 36.6828 10.4664 38.445V51.7612C10.4664 53.5235 11.9082 54.9522 13.6868 54.9522H27.1253C28.9038 54.9522 30.3457 53.5235 30.3457 51.7612V38.445C30.3457 36.6828 28.9038 35.2541 27.1253 35.2541H13.6868ZM21.6798 43.8452H25.4231C25.7005 43.8452 25.9567 43.9345 26.1654 44.0853C26.487 44.3111 26.697 44.6828 26.697 45.1032C26.697 45.4399 26.562 45.7457 26.343 45.9699C26.1107 46.2104 25.7836 46.361 25.4231 46.361H21.6798V50.0789C21.6798 50.6813 21.242 51.1911 20.6645 51.3104C20.5811 51.3276 20.4947 51.3367 20.4063 51.3367C19.6965 51.3367 19.1323 50.7777 19.1323 50.0789V46.361H15.3889C14.6791 46.361 14.1151 45.802 14.1151 45.1032C14.1151 44.7664 14.2499 44.4608 14.4689 44.2364C14.7013 43.996 15.0284 43.8452 15.3889 43.8452H19.1323V40.1275C19.1323 39.5251 19.5702 39.0152 20.1475 38.8958C20.2311 38.8786 20.3173 38.8695 20.4057 38.8695C21.1155 38.8695 21.6798 39.4287 21.6798 40.1275V43.8452Z" fill="#5A19DA"/>
<path d="M43.1393 40.9789H45.4302V42.7873C45.4302 43.3682 45.8917 43.8397 46.4645 43.8397H48.1657V49.3522H43.1393V40.9789Z" fill="#5A19DA"/>
<path fill-rule="evenodd" clip-rule="evenodd" d="M35.7128 38.445C35.7128 36.6828 37.1546 35.2541 38.9331 35.2541H52.3717C54.1503 35.2541 55.592 36.6828 55.592 38.445V51.7612C55.592 53.5235 54.1503 54.9522 52.3717 54.9522H38.9331C37.1546 54.9522 35.7128 53.5235 35.7128 51.7612V38.445ZM46.738 38.8475L50.3369 42.5096C50.4737 42.6611 50.5592 42.8546 50.5592 43.0736V50.163C50.5593 50.1664 50.5593 50.1696 50.5593 50.1729C50.5593 50.1745 50.5592 50.1761 50.5592 50.1777C50.5423 51.0295 49.8646 51.7108 49.0291 51.7108H42.2757C41.4403 51.7108 40.7628 51.0215 40.7456 50.1777V40.1534C40.7625 39.3016 41.4402 38.6202 42.2757 38.6202H46.1996C46.3962 38.6202 46.5928 38.7044 46.738 38.8475Z" fill="#5A19DA"/>
<path d="M130.291 15.2762C131.508 16.4022 132.973 16.9652 134.684 16.9652C136.378 16.9652 137.83 16.4022 139.039 15.2762C140.249 14.1503 140.853 12.7902 140.853 11.1958C140.853 9.6179 140.249 8.26599 139.039 7.14006C137.83 6.01414 136.37 5.45117 134.659 5.45117C132.964 5.45117 131.508 6.01414 130.291 7.14006C129.074 8.26599 128.465 9.6179 128.465 11.1958C128.465 12.7902 129.074 14.1503 130.291 15.2762Z" fill="#5A19DA"/>
<path d="M128.613 57.9029C128.613 58.6462 129.214 59.2488 129.956 59.2488H139.337C140.079 59.2488 140.68 58.6462 140.68 57.9029V22.7245C140.68 21.981 140.079 21.3785 139.337 21.3785H129.956C129.214 21.3785 128.613 21.981 128.613 22.7245V57.9029Z" fill="#5A19DA"/>
<path fill-rule="evenodd" clip-rule="evenodd" d="M84.9642 59.2488C84.2223 59.2488 83.6207 58.6461 83.6207 57.9028V10.101C83.6207 9.35759 84.2223 8.75496 84.9642 8.75496H104.498C108.282 8.75496 111.552 9.4905 114.308 10.9616C117.063 12.4327 119.19 14.4792 120.687 17.1007C122.184 19.7224 122.933 22.7673 122.933 26.2355C122.933 29.7201 122.172 32.765 120.65 35.3703C119.128 37.9754 116.961 39.9931 114.147 41.423C111.334 42.8531 107.994 43.568 104.128 43.568H95.8363V57.9028C95.8363 58.6461 95.2347 59.2488 94.4928 59.2488H84.9642ZM95.8363 33.9526H101.858C103.7 33.9526 105.243 33.632 106.485 32.991C107.727 32.35 108.669 31.4501 109.311 30.2913C109.952 29.1325 110.273 27.7805 110.273 26.2355C110.273 24.6739 109.952 23.3221 109.311 22.1797C108.669 21.0373 107.723 20.1539 106.473 19.5293C105.222 18.9046 103.684 18.5923 101.858 18.5923H95.8363V33.9526Z" fill="#5A19DA"/>
<path d="M157.756 22.1211L163.628 33.854L169.718 22.1041C169.948 21.6582 170.409 21.3785 170.909 21.3785H179.968C180.994 21.3785 181.641 22.485 181.139 23.3823L171.673 40.3136L181.482 57.2267C182.002 58.124 181.356 59.2488 180.32 59.2488H171.378C170.889 59.2488 170.44 58.9833 170.203 58.5556L163.628 46.6747L157.222 58.543C156.988 58.9778 156.534 59.2488 156.041 59.2488H146.938C145.902 59.2488 145.255 58.1228 145.777 57.2256L155.608 40.3136L146.248 23.3763C145.753 22.4792 146.4 21.3785 147.423 21.3785H156.555C157.064 21.3785 157.528 21.6659 157.756 22.1211Z" fill="#5A19DA"/>
<path d="M188.815 59.2488C188.072 59.2488 187.472 58.6462 187.472 57.9029V22.7245C187.472 21.981 188.072 21.3785 188.815 21.3785H198.195C198.936 21.3785 199.538 21.981 199.538 22.7245V57.9029C199.538 58.6462 198.936 59.2488 198.195 59.2488H188.815Z" fill="#5A19DA"/>
<path d="M189.149 15.2762C190.367 16.4022 191.831 16.9652 193.542 16.9652C195.237 16.9652 196.688 16.4022 197.898 15.2762C199.107 14.1503 199.712 12.7902 199.712 11.1958C199.712 9.6179 199.107 8.26599 197.898 7.14006C196.688 6.01414 195.228 5.45117 193.517 5.45117C191.823 5.45117 190.367 6.01414 189.149 7.14006C187.931 8.26599 187.322 9.6179 187.322 11.1958C187.322 12.7902 187.931 14.1503 189.149 15.2762Z" fill="#5A19DA"/>
<path fill-rule="evenodd" clip-rule="evenodd" d="M214.338 57.6092C217.209 59.179 220.627 59.9639 224.592 59.9639C227.898 59.9639 230.81 59.4583 233.327 58.4475C235.845 57.4366 237.88 56.0148 239.435 54.1821C240.661 52.7365 241.547 51.0888 242.093 49.2391C242.327 48.4467 241.714 47.6887 240.889 47.6648L232.338 47.4174C231.764 47.4009 231.257 47.7618 230.969 48.2605C230.699 48.7296 230.366 49.1461 229.971 49.51C229.346 50.0852 228.597 50.5209 227.725 50.8168C226.854 51.1125 225.883 51.2606 224.813 51.2606C223.267 51.2606 221.935 50.9399 220.816 50.299C219.696 49.658 218.832 48.758 218.224 47.5992C217.615 46.4404 217.312 45.0885 217.312 43.5434V43.223H241.237C241.98 43.223 242.581 42.6203 242.581 41.877V40.215C242.581 37.1084 242.128 34.3511 241.223 31.9432C240.318 29.5352 239.053 27.5094 237.423 25.8657C235.795 24.222 233.862 22.981 231.625 22.1427C229.387 21.3045 226.919 20.8854 224.221 20.8854C220.404 20.8854 217.089 21.703 214.276 23.3386C211.462 24.9739 209.282 27.2587 207.736 30.1927C206.189 33.1266 205.416 36.5496 205.416 40.4616C205.416 44.4887 206.185 47.9608 207.723 50.8784C209.262 53.7959 211.467 56.0396 214.338 57.6092ZM217.319 36.2209C217.378 35.0016 217.705 33.9044 218.298 32.9294C218.923 31.902 219.771 31.0885 220.839 30.4885C221.909 29.8885 223.119 29.5885 224.467 29.5885C225.801 29.5885 226.981 29.8721 228.009 30.4391C229.037 31.0063 229.847 31.7912 230.439 32.7938C231.031 33.7964 231.336 34.9388 231.353 36.2209H217.319Z" fill="#5A19DA"/>
<path fill-rule="evenodd" clip-rule="evenodd" d="M248.459 57.9028C248.459 58.6461 249.06 59.2488 249.803 59.2488H271.138C274.873 59.2488 278.047 58.6365 280.663 57.412C283.279 56.1874 285.279 54.5109 286.66 52.3823C288.042 50.2537 288.734 47.8335 288.734 45.1214C288.734 42.6887 288.206 40.5807 287.154 38.7974C286.101 37.014 284.707 35.6209 282.97 34.6182C281.235 33.6156 279.348 33.0649 277.307 32.9664V32.4732C279.166 32.0788 280.804 31.3884 282.218 30.4022C283.633 29.416 284.743 28.171 285.55 26.667C286.356 25.1631 286.759 23.4495 286.759 21.5263C286.759 18.9951 286.113 16.7679 284.822 14.8447C283.53 12.9217 281.606 11.426 279.048 10.3575C276.49 9.28918 273.318 8.75496 269.534 8.75496H249.803C249.06 8.75496 248.459 9.35759 248.459 10.101V57.9028ZM268.226 49.4114H260.674V37.3796H268.449C270.01 37.3796 271.352 37.6385 272.47 38.1562C273.589 38.6741 274.453 39.4054 275.062 40.3506C275.671 41.2958 275.975 42.4176 275.975 43.7161C275.975 45.5076 275.345 46.9048 274.086 47.9074C272.828 48.91 270.874 49.4114 268.226 49.4114ZM267.437 29.5146H260.674V18.4444H267.634C269.673 18.4444 271.294 18.9293 272.495 19.8991C273.696 20.8689 274.296 22.2002 274.296 23.8933C274.296 25.0767 274.005 26.0876 273.421 26.9258C272.836 27.7641 272.026 28.4051 270.99 28.8489C269.954 29.2928 268.768 29.5146 267.437 29.5146Z" fill="#5A19DA"/>
<path d="M294.738 21.3785C293.997 21.3785 293.395 21.9811 293.395 22.7245V57.9029C293.395 58.6462 293.997 59.2488 294.738 59.2488H304.118C304.861 59.2488 305.463 58.6462 305.463 57.9029V38.6864C305.463 37.1742 305.787 35.8552 306.437 34.7292C307.086 33.6033 307.983 32.724 309.127 32.0911C310.27 31.4583 311.557 31.1419 312.989 31.1419C313.712 31.1419 314.54 31.1995 315.468 31.3145C315.615 31.3326 315.757 31.3519 315.896 31.3719C316.807 31.5055 317.726 30.8233 317.726 29.9001V22.316C317.726 21.7169 317.332 21.1821 316.744 21.0744C316.527 21.0345 316.303 21.0003 316.073 20.9716C315.481 20.8977 314.905 20.8606 314.347 20.8606C312.273 20.8606 310.455 21.4729 308.892 22.6975C307.329 23.922 306.203 25.7836 305.512 28.2819H305.116V22.7245C305.116 21.9811 304.515 21.3785 303.773 21.3785H294.738Z" fill="#5A19DA"/>
<path d="M323.242 57.9029C323.242 58.6462 323.843 59.2488 324.585 59.2488H333.966C334.708 59.2488 335.31 58.6462 335.31 57.9029V22.7245C335.31 21.981 334.708 21.3785 333.966 21.3785H324.585C323.843 21.3785 323.242 21.981 323.242 22.7245V57.9029Z" fill="#5A19DA"/>
<path d="M329.312 16.9652C327.601 16.9652 326.137 16.4022 324.92 15.2762C323.703 14.1503 323.094 12.7902 323.094 11.1958C323.094 9.6179 323.703 8.26599 324.92 7.14006C326.137 6.01414 327.593 5.45117 329.288 5.45117C330.999 5.45117 332.458 6.01414 333.667 7.14006C334.877 8.26599 335.481 9.6179 335.481 11.1958C335.481 12.7902 334.877 14.1503 333.667 15.2762C332.458 16.4022 331.006 16.9652 329.312 16.9652Z" fill="#5A19DA"/>
<path d="M352.385 22.1211L358.257 33.854L364.346 22.1041C364.577 21.6582 365.037 21.3785 365.538 21.3785H374.596C375.622 21.3785 376.27 22.485 375.768 23.3823L366.301 40.3136L376.111 57.2267C376.631 58.124 375.985 59.2488 374.949 59.2488H366.008C365.519 59.2488 365.069 58.9833 364.832 58.5556L358.257 46.6747L351.851 58.543C351.616 58.9778 351.163 59.2488 350.67 59.2488H341.568C340.53 59.2488 339.885 58.1228 340.406 57.2256L350.236 40.3136L340.877 23.3763C340.381 22.4792 341.029 21.3785 342.052 21.3785H351.184C351.692 21.3785 352.157 21.6659 352.385 22.1211Z" fill="#5A19DA"/>
</g>
<defs>
<clipPath id="clip0_1222_300">
<rect width="377.395" height="65.4152" fill="white"/>
</clipPath>
</defs>
</svg>

<svg xmlns="http://www.w3.org/2000/svg" width="378" height="66" fill="none"><g clip-path="url(#a)"><path fill="#fff" stroke="#5A19DA" stroke-linecap="square" stroke-width="4" d="M2 7.434C2 4.45 4.446 2 7.503 2h51.011c3.056 0 5.503 2.45 5.503 5.434v50.547c0 2.984-2.447 5.434-5.503 5.434H7.502C4.446 63.415 2 60.965 2 57.981V7.434Z"/><path fill="#5A19DA" fill-rule="evenodd" d="M26.3 10.238c-1.779 0-3.22 1.428-3.22 3.19v13.317c0 1.762 1.441 3.19 3.22 3.19h13.438c1.779 0 3.22-1.428 3.22-3.19V13.429c0-1.763-1.441-3.191-3.22-3.191H26.3Zm7.235 5.198c-.021-1.198.945-2.185 2.157-2.206 1.213-.02 2.213.934 2.233 2.131.021 1.198-.944 2.186-2.157 2.206a2.206 2.206 0 0 1-1.24-.353l-3.508 2.128a2.154 2.154 0 0 1-.05 1.433l3.482 2.112c.35-.248.777-.398 1.24-.405 1.213-.021 2.213.933 2.233 2.13.021 1.199-.944 2.186-2.157 2.207-1.212.02-2.212-.934-2.233-2.131a2.144 2.144 0 0 1 .016-.305l-3.883-2.355a2.216 2.216 0 0 1-.706.128c-1.213.02-2.213-.934-2.234-2.131-.02-1.198.946-2.186 2.158-2.206.34-.006.664.065.953.196l3.725-2.259a2.172 2.172 0 0 1-.03-.32ZM13.687 35.254c-1.779 0-3.22 1.429-3.22 3.191v13.316c0 1.762 1.441 3.191 3.22 3.191h13.438c1.779 0 3.22-1.428 3.22-3.19V38.444c0-1.762-1.441-3.19-3.22-3.19H13.687Zm7.993 8.591h3.743c.278 0 .534.09.742.24a1.242 1.242 0 0 1 .178 1.885c-.232.24-.56.391-.92.391H21.68v3.718a1.269 1.269 0 0 1-1.274 1.258 1.26 1.26 0 0 1-1.274-1.258V46.36H15.39a1.26 1.26 0 0 1-1.274-1.258c0-.337.135-.642.354-.867.232-.24.56-.39.92-.39h3.743v-3.718a1.27 1.27 0 0 1 1.274-1.258c.71 0 1.274.559 1.274 1.258v3.717Z" clip-rule="evenodd"/><path fill="#5A19DA" d="M43.14 40.979h2.29v1.808c0 .581.462 1.053 1.035 1.053h1.7v5.512H43.14V40.98Z"/><path fill="#5A19DA" fill-rule="evenodd" d="M35.713 38.445c0-1.762 1.442-3.19 3.22-3.19h13.439c1.778 0 3.22 1.428 3.22 3.19v13.316c0 1.762-1.442 3.191-3.22 3.191H38.933c-1.778 0-3.22-1.428-3.22-3.19V38.444Zm11.025.402 3.599 3.663a.834.834 0 0 1 .222.564v7.089a.33.33 0 0 1 0 .01v.005c-.017.852-.694 1.533-1.53 1.533h-6.753c-.836 0-1.513-.69-1.53-1.533V40.153c.017-.851.694-1.533 1.53-1.533H46.2c.196 0 .393.084.538.227Z" clip-rule="evenodd"/><path fill="#5A19DA" d="M130.291 15.276c1.217 1.126 2.682 1.69 4.393 1.69 1.694 0 3.146-.564 4.355-1.69 1.21-1.126 1.814-2.486 1.814-4.08 0-1.578-.604-2.93-1.814-4.056-1.209-1.126-2.669-1.689-4.38-1.689-1.695 0-3.151.563-4.368 1.69-1.217 1.125-1.826 2.477-1.826 4.055 0 1.594.609 2.954 1.826 4.08ZM128.613 57.903c0 .743.601 1.346 1.343 1.346h9.381c.742 0 1.343-.603 1.343-1.346V22.725c0-.744-.601-1.347-1.343-1.347h-9.381c-.742 0-1.343.603-1.343 1.346v35.179Z"/><path fill="#5A19DA" fill-rule="evenodd" d="M84.964 59.249a1.345 1.345 0 0 1-1.343-1.346V10.1c0-.743.601-1.346 1.343-1.346h19.534c3.784 0 7.054.736 9.81 2.207 2.755 1.47 4.882 3.517 6.379 6.139 1.497 2.621 2.246 5.666 2.246 9.134 0 3.485-.761 6.53-2.283 9.135-1.522 2.605-3.689 4.623-6.503 6.053-2.813 1.43-6.153 2.145-10.019 2.145h-8.292v14.335c0 .743-.601 1.346-1.343 1.346h-9.529Zm10.872-25.296h6.022c1.842 0 3.385-.321 4.627-.962s2.184-1.54 2.826-2.7c.641-1.159.962-2.51.962-4.056 0-1.561-.321-2.913-.962-4.055-.642-1.143-1.588-2.026-2.838-2.65-1.251-.625-2.789-.938-4.615-.938h-6.022v15.36Z" clip-rule="evenodd"/><path fill="#5A19DA" d="m157.756 22.121 5.872 11.733 6.09-11.75c.23-.446.691-.726 1.191-.726h9.059a1.346 1.346 0 0 1 1.171 2.004l-9.466 16.932 9.809 16.913a1.346 1.346 0 0 1-1.162 2.022h-8.942c-.489 0-.938-.266-1.175-.693l-6.575-11.881-6.406 11.868a1.342 1.342 0 0 1-1.181.706h-9.103a1.346 1.346 0 0 1-1.161-2.023l9.831-16.912-9.36-16.938a1.346 1.346 0 0 1 1.175-1.998h9.132c.509 0 .973.288 1.201.743ZM188.815 59.249a1.344 1.344 0 0 1-1.343-1.346V22.725c0-.744.6-1.347 1.343-1.347h9.38c.741 0 1.343.603 1.343 1.346v35.179c0 .743-.602 1.346-1.343 1.346h-9.38ZM189.149 15.276c1.218 1.126 2.682 1.69 4.393 1.69 1.695 0 3.146-.564 4.356-1.69 1.209-1.126 1.814-2.486 1.814-4.08 0-1.578-.605-2.93-1.814-4.056-1.21-1.126-2.67-1.689-4.381-1.689-1.694 0-3.15.563-4.368 1.69-1.218 1.125-1.827 2.477-1.827 4.055 0 1.594.609 2.954 1.827 4.08Z"/><path fill="#5A19DA" fill-rule="evenodd" d="M214.338 57.61c2.871 1.569 6.289 2.354 10.254 2.354 3.306 0 6.218-.506 8.735-1.517 2.518-1.01 4.553-2.432 6.108-4.265a13.434 13.434 0 0 0 2.658-4.943c.234-.792-.379-1.55-1.204-1.574l-8.551-.248c-.574-.016-1.081.345-1.369.843a5.25 5.25 0 0 1-.998 1.25 6.222 6.222 0 0 1-2.246 1.307c-.871.295-1.842.444-2.912.444-1.546 0-2.878-.321-3.997-.962a6.55 6.55 0 0 1-2.592-2.7c-.609-1.159-.912-2.51-.912-4.056v-.32h23.925c.743 0 1.344-.603 1.344-1.346v-1.662c0-3.107-.453-5.864-1.358-8.272-.905-2.408-2.17-4.434-3.8-6.077-1.628-1.644-3.561-2.885-5.798-3.723-2.238-.838-4.706-1.258-7.404-1.258-3.817 0-7.132.818-9.945 2.454-2.814 1.635-4.994 3.92-6.54 6.854-1.547 2.934-2.32 6.357-2.32 10.269 0 4.027.769 7.499 2.307 10.416 1.539 2.918 3.744 5.162 6.615 6.731Zm2.981-21.39c.059-1.218.386-2.316.979-3.29a6.843 6.843 0 0 1 2.541-2.442c1.07-.6 2.28-.9 3.628-.9 1.334 0 2.514.284 3.542.851a6.31 6.31 0 0 1 2.43 2.355c.592 1.002.897 2.145.914 3.427h-14.034ZM248.459 57.903c0 .743.601 1.346 1.344 1.346h21.335c3.735 0 6.909-.613 9.525-1.837 2.616-1.225 4.616-2.901 5.997-5.03 1.382-2.128 2.074-4.548 2.074-7.26 0-2.433-.528-4.541-1.58-6.325-1.053-1.783-2.447-3.176-4.184-4.179a12.342 12.342 0 0 0-5.663-1.652v-.493c1.859-.394 3.497-1.085 4.911-2.07a10.61 10.61 0 0 0 3.332-3.736c.806-1.504 1.209-3.218 1.209-5.14 0-2.532-.646-4.76-1.937-6.682-1.292-1.923-3.216-3.419-5.774-4.488-2.558-1.068-5.73-1.602-9.514-1.602h-19.731c-.743 0-1.344.603-1.344 1.346v47.802Zm19.767-8.492h-7.552V37.38h7.775c1.561 0 2.903.258 4.021.776 1.119.518 1.983 1.25 2.592 2.195.609.945.913 2.067.913 3.365 0 1.792-.63 3.189-1.889 4.191-1.258 1.003-3.212 1.504-5.86 1.504Zm-.789-19.896h-6.763v-11.07h6.96c2.039 0 3.66.484 4.861 1.454 1.201.97 1.801 2.301 1.801 3.994 0 1.184-.291 2.195-.875 3.033-.585.838-1.395 1.48-2.431 1.923-1.036.444-2.222.666-3.553.666Z" clip-rule="evenodd"/><path fill="#5A19DA" d="M294.738 21.378c-.741 0-1.343.603-1.343 1.346v35.179c0 .743.602 1.346 1.343 1.346h9.38c.743 0 1.345-.603 1.345-1.346V38.686c0-1.512.324-2.83.974-3.957a6.905 6.905 0 0 1 2.69-2.638c1.143-.633 2.43-.95 3.862-.95.723 0 1.551.059 2.479.174.147.018.289.037.428.057.911.134 1.83-.549 1.83-1.472v-7.584c0-.6-.394-1.134-.982-1.242a13.943 13.943 0 0 0-2.397-.214c-2.074 0-3.892.613-5.455 1.837-1.563 1.225-2.689 3.087-3.38 5.585h-.396v-5.558c0-.743-.601-1.346-1.343-1.346h-9.035ZM323.242 57.903c0 .743.601 1.346 1.343 1.346h9.381c.742 0 1.344-.603 1.344-1.346V22.725c0-.744-.602-1.347-1.344-1.347h-9.381c-.742 0-1.343.603-1.343 1.346v35.179ZM329.312 16.965c-1.711 0-3.175-.563-4.392-1.689-1.217-1.126-1.826-2.486-1.826-4.08 0-1.578.609-2.93 1.826-4.056s2.673-1.689 4.368-1.689c1.711 0 3.17.563 4.379 1.69 1.21 1.125 1.814 2.477 1.814 4.055 0 1.594-.604 2.954-1.814 4.08-1.209 1.126-2.661 1.69-4.355 1.69ZM352.385 22.121l5.872 11.733 6.089-11.75a1.343 1.343 0 0 1 1.192-.726h9.058a1.346 1.346 0 0 1 1.172 2.004l-9.467 16.932 9.81 16.913a1.346 1.346 0 0 1-1.162 2.022h-8.941c-.489 0-.939-.266-1.176-.693l-6.575-11.881-6.406 11.868a1.343 1.343 0 0 1-1.181.706h-9.102a1.346 1.346 0 0 1-1.162-2.023l9.83-16.912-9.359-16.938a1.346 1.346 0 0 1 1.175-1.998h9.132c.508 0 .973.288 1.201.743Z"/></g><defs><clipPath id="a"><path fill="#fff" d="M0 0h377.395v65.415H0z"/></clipPath></defs></svg>
